Obsidian-SemiLight/actions/16s/filename-group-length.svg

<svg viewBox="0 0 16 16" xmlns="http://www.w3.org/2000/svg"><path d="m2 2v.75 10.25h1 1 1v1h2v-1h-1v-8h6v1h1v-1-1h-1v-2h-1.357422-7.8574218zm1 1h8v1h-6v1 7h-1-1zm7.5 4a3.5 3.5 0 0 0 -3.5 3.5 3.5 3.5 0 0 0 3.5 3.5 3.5 3.5 0 0 0 3.5-3.5 3.5 3.5 0 0 0 -3.5-3.5zm0 1a2.5 2.5 0 0 1 2.5 2.5 2.5 2.5 0 0 1 -2.5 2.5 2.5 2.5 0 0 1 -2.5-2.5 2.5 2.5 0 0 1 2.5-2.5zm-.5 1v3h1 1v-1h-1v-2z" fill="#4d4d4d"/></svg>

<svg xmlns="http://www.w3.org/2000/svg" viewBox="0 0 16 16">
  <defs id="defs3051">
    <style type="text/css" id="current-color-scheme">
      .ColorScheme-Text {
        color:#4d4d4d;
      }
      </style>
  </defs>
 <path style="fill:currentColor;fill-opacity:1;stroke:none" 
     d="M 2 2 L 2 2.75 L 2 13 L 3 13 L 4 13 L 5 13 L 5 14 L 7 14 L 7 13 L 6 13 L 6 5 L 12 5 L 12 6 L 13 6 L 13 5 L 13 4 L 12 4 L 12 2 L 10.642578 2 L 2.7851562 2 L 2 2 z M 3 3 L 11 3 L 11 4 L 5 4 L 5 5 L 5 12 L 4 12 L 3 12 L 3 3 z M 10.5 7 A 3.5 3.5 0 0 0 7 10.5 A 3.5 3.5 0 0 0 10.5 14 A 3.5 3.5 0 0 0 14 10.5 A 3.5 3.5 0 0 0 10.5 7 z M 10.5 8 A 2.5 2.5 0 0 1 13 10.5 A 2.5 2.5 0 0 1 10.5 13 A 2.5 2.5 0 0 1 8 10.5 A 2.5 2.5 0 0 1 10.5 8 z M 10 9 L 10 12 L 11 12 L 12 12 L 12 11 L 11 11 L 11 9 L 10 9 z "
     class="ColorScheme-Text"
     />
</svg>
